icon-themes/breeze_svg/cmd/sc_insertreferencefield.svg

<svg viewBox="0 0 16 16" xmlns="http://www.w3.org/2000/svg"><path d="m3 2v12h7l3-3v-9zm1 1h8v7h-3v3h-5zm1 1v1h3v-1zm2 2v1h4v-1zm-2 2v1h2 1 2v-1h-2-1z" fill="#4d4d4d"/><path d="m8 4v1h3v-1z" fill="#1d99f3"/></svg>

<svg xmlns="http://www.w3.org/2000/svg" viewBox="0 0 16 16">
 <path 
     style="fill:#4d4d4d" 
     d="M 3 2 L 3 14 L 10 14 L 13 11 L 13 2 L 3 2 z M 4 3 L 12 3 L 12 10 L 9 10 L 9 13 L 4 13 L 4 3 z M 7 6 L 7 7 L 11 7 L 11 6 L 7 6 z M 7 8 L 7 9 L 10 9 L 10 8 L 7 8 z "
     />
 <path 
     style="fill:#1d99f3" 
     d="M 5 4 L 5 5 L 5 12 L 6 12 L 8 12 L 8 11 L 6 11 L 6 5 L 11 5 L 11 4 L 5 4 z "
     />
 </svg>
